X:91
T:Woodchopper's Reel
S:Bernie Waugh
R:Reel
M:2/4
L:1/16
K:D
|:fg|\
"D"afdB AdFA|DFAd f2ef|"A"(3gfe cB Aceg|a^gab a=gfg|
"D"afdB AdFA|DFAd f2ef|"A"(3gfe cB Acec|"D"dfec d2:|
|:FE|\
"D"DFAd (3BdB AF|DFAd (3BdB A2|"A"A,CEA ceaf|gfed cBAF|
"D"DFAd (3BdB AF|DFAd (3BdB A2|"A"A,CEA ceaf|(3gfe ce "D"d2:|

